assets/ai/ai-piazza-square.svg

<svg xmlns="http://www.w3.org/2000/svg" width="100%" height="100%" viewBox="-75.52 -43.52 599.04 599.04"><path d="M 48 32 C 21.5 32 0 53.5 0 80 L 0 432 C 0 458.5 21.5 480 48 480 L 400 480 C 426.5 480 448 458.5 448 432 L 448 80 C 448 53.5 426.5 32 400 32 L 48 32 z M 226.67578 96 C 232.27474 96.015941 237.53773 96.307249 241.30078 96.904297 C 264.66625 100.61103 284.81322 110.82352 301.36133 127.35156 C 330.60531 156.55689 340.62692 199.18214 327.49609 238.51562 C 322.23331 254.27803 314.54314 266.91825 302.875 278.98633 C 293.82713 288.34226 285.42792 294.64598 274.53711 300.25 C 263.80118 305.77528 254.35038 308.95219 242.78906 310.92969 C 230.40089 313.04828 212.27083 312.54736 200.36133 309.75391 C 186.19871 306.43366 171.42746 299.56652 159.90625 290.94922 C 152.12385 285.12792 152.87695 278.60842 152.87695 351.83398 L 152.87695 416 L 114.82617 416 L 114.82617 305.01367 L 114.82812 305.01367 C 114.82812 210.74837 114.99685 193.01642 115.93164 187.3125 C 123.13837 143.32841 156.54341 108.39221 201.2793 98.050781 C 207.08028 96.709123 217.34418 95.973431 226.67578 96 z M 223.75977 136.62109 C 212.58747 136.66229 210.84516 136.85178 204.89844 138.67578 C 191.81316 142.68912 181.53187 149.12044 172.47852 158.95508 C 166.67326 165.26311 163.53709 170.16477 159.83984 178.7168 C 152.06255 196.70754 152.71473 218.74786 161.55078 236.39844 C 173.25464 259.77846 195.31048 273.94099 222.64258 275.625 C 223.46253 275.6757 227.15638 275.37364 230.84961 274.95508 C 239.8614 273.93243 245.16227 272.431 253.57031 268.51758 C 272.49295 259.70923 286.05201 243.38367 291.41211 222.95312 C 294.01997 213.01456 294.16886 199.38388 291.77539 189.64258 C 285.68062 164.83047 266.90637 145.44451 242.04102 138.29102 C 236.84933 136.79769 234.46904 136.58089 223.75977 136.62109 z"/></svg>

<svg xmlns="http://www.w3.org/2000/svg" width="100%" height="100%" viewBox="-75.52 -43.52 599.04 599.04"><path d="M48 32C21.5 32 0 53.5 0 80v352c0 26.5 21.5 48 48 48h352c26.5 0 48-21.5 48-48V80c0-26.5-21.5-48-48-48H48zm178.676 64c5.599.016 10.862.307 14.625.904 23.365 3.707 43.512 13.92 60.06 30.448 29.244 29.205 39.266 71.83 26.135 111.164-5.263 15.762-12.953 28.402-24.621 40.47-9.048 9.356-17.447 15.66-28.338 21.264-10.736 5.525-20.187 8.702-31.748 10.68-12.388 2.118-30.518 1.617-42.428-1.176-14.162-3.32-28.934-10.187-40.455-18.805-7.782-5.821-7.03-12.34-7.03 60.885V416h-38.05V305.014h.002c0-94.266.169-111.998 1.104-117.702 7.206-43.984 40.611-78.92 85.347-89.261 5.801-1.342 16.065-2.078 25.397-2.051zm-2.916 40.621c-11.173.041-12.915.23-18.862 2.055-13.085 4.013-23.366 10.444-32.42 20.28-5.805 6.307-8.94 11.209-12.638 19.76-7.777 17.992-7.125 40.032 1.71 57.682 11.705 23.38 33.76 37.543 61.093 39.227.82.05 4.513-.251 8.207-.67 9.011-1.023 14.312-2.524 22.72-6.437 18.923-8.809 32.482-25.134 37.842-45.565 2.608-9.938 2.757-23.57.363-33.31-6.094-24.813-24.869-44.198-49.734-51.352-5.192-1.493-7.572-1.71-18.281-1.67z"/></svg>
